packages/vibrant-icons/assets/icons/SearchText/Thin.svg

<svg width="24" height="24" viewBox="0 0 24 24" fill="none" xmlns="http://www.w3.org/2000/svg">
<path d="M13.8 4.8499C13.9105 4.8499 14 4.76036 14 4.6499V3.3499C14 3.23945 13.9105 3.1499 13.8 3.1499H2.2C2.08954 3.1499 2 3.23945 2 3.3499V4.6499C2 4.76036 2.08954 4.8499 2.2 4.8499H13.8Z" fill="#0C0C0C"/>
<path fill-rule="evenodd" clip-rule="evenodd" d="M7.1499 13.9486C7.1499 10.1938 10.1938 7.1499 13.9486 7.1499C17.7035 7.1499 20.7474 10.1938 20.7474 13.9486C20.7474 15.5198 20.2145 16.9664 19.3195 18.1177L23.1004 21.8986L21.8983 23.1006L18.1174 19.3197C16.9662 20.2145 15.5196 20.7474 13.9486 20.7474C10.1938 20.7474 7.1499 17.7035 7.1499 13.9486ZM13.9486 8.8499C11.1327 8.8499 8.8499 11.1327 8.8499 13.9486C8.8499 16.7646 11.1327 19.0474 13.9486 19.0474C16.7646 19.0474 19.0474 16.7646 19.0474 13.9486C19.0474 11.1327 16.7646 8.8499 13.9486 8.8499Z" fill="#0C0C0C"/>
<path d="M7 9.1499C7 9.26036 6.91046 9.3499 6.8 9.3499H2.2C2.08954 9.3499 2 9.26036 2 9.1499V7.8499C2 7.73945 2.08954 7.6499 2.2 7.6499H6.8C6.91046 7.6499 7 7.73945 7 7.8499V9.1499Z" fill="#0C0C0C"/>
<path d="M4.8 13.8499C4.91046 13.8499 5 13.7604 5 13.6499V12.3499C5 12.2394 4.91046 12.1499 4.8 12.1499H2.2C2.08954 12.1499 2 12.2394 2 12.3499V13.6499C2 13.7604 2.08954 13.8499 2.2 13.8499H4.8Z" fill="#0C0C0C"/>
</svg>

<svg xmlns="http://www.w3.org/2000/svg" width="24" height="24" fill="none"><path fill="#0C0C0C" d="M13.8 4.85a.2.2 0 0 0 .2-.2v-1.3a.2.2 0 0 0-.2-.2H2.2a.2.2 0 0 0-.2.2v1.3c0 .11.09.2.2.2z"/><path fill="#0C0C0C" fill-rule="evenodd" d="M7.15 13.949a6.799 6.799 0 1 1 12.17 4.169l3.78 3.78-1.202 1.203-3.78-3.781A6.799 6.799 0 0 1 7.15 13.949m6.799-5.1a5.099 5.099 0 1 0 0 10.198 5.099 5.099 0 0 0 0-10.197" clip-rule="evenodd"/><path fill="#0C0C0C" d="M7 9.15a.2.2 0 0 1-.2.2H2.2a.2.2 0 0 1-.2-.2v-1.3c0-.11.09-.2.2-.2h4.6c.11 0 .2.09.2.2zM4.8 13.85a.2.2 0 0 0 .2-.2v-1.3a.2.2 0 0 0-.2-.2H2.2a.2.2 0 0 0-.2.2v1.3c0 .11.09.2.2.2z"/></svg>
